X:1
T:Megy a gőzös Kanizsára
O:Magyar népdal
M:C
L:1/8
Q:1/4=60
K:C
CCEC GGAG | FED2C2z2 |
w: Megy a gő-zös megy a gő-zös Ka-ni-zsá-ra,
CCEC GGAG | FED2C2z2 | 
w: ka-ni-zsa-i, ka-ni-zsa-i ál-lo-más-ra.
FGA2A4 | cBA2G2z2 |
w:E-löl ül a ma-si-nisz-ta,
cGEC GGAG | FED2C2z2 |]
w:ki a gő-zöst, ki a gő-zöst i-ga-zít-ja.
